X: 128
M:3/2
L:1/8
K:D
d2A2F2D2A2d2 | cde2Bcd2c2A2 | d2f2efg2fga2 | A2d2cdecd4 ||
fefg fedc B2d2 | c2e2d2B2^A2F2 | BcdB cdec defd |

